img/why-we/chain-tablet.svg

<svg width="46" height="46" viewBox="0 0 46 46" fill="none" xmlns="http://www.w3.org/2000/svg">
<path d="M13.2816 32.8978C13.5618 33.178 13.9298 33.3188 14.2977 33.3188C14.6657 33.3188 15.0322 33.178 15.3139 32.8978L32.7256 15.3539C33.2862 14.7935 33.2862 13.8825 32.7256 13.3221C32.1651 12.7617 31.2552 12.7617 30.6933 13.3221L13.2816 30.8659C12.7196 31.4263 12.7196 32.3359 13.2816 32.8978ZM21.3765 29.8385C21.8523 31.9321 21.3392 33.987 19.7208 35.6065L13.9154 41.2307C12.6937 42.4507 11.0695 43.1232 9.34186 43.1232C7.6142 43.1232 5.99003 42.4507 4.76831 41.2307C2.24725 38.7089 2.24725 34.6063 4.75394 32.1003L10.4256 26.2518C11.6473 25.0319 13.2715 24.3579 14.9992 24.3579C15.5899 24.3579 16.1591 24.4628 16.7139 24.6151L18.9575 22.372C17.7056 21.7872 16.3545 21.4826 14.9992 21.4826C12.6089 21.4826 10.2172 22.395 8.39323 24.2185L2.73594 30.054C-0.91198 33.701 -0.91198 39.6156 2.73594 43.264C4.5599 45.089 6.9516 46 9.34186 46C11.7321 46 14.1238 45.089 15.9478 43.264L21.7402 37.6541C24.5315 34.8635 25.1337 30.9751 23.6561 27.5623L21.3765 29.8385ZM43.2626 2.73597C41.4372 0.91247 39.047 0 36.6567 0C34.265 0 31.8733 0.91247 30.0508 2.73597L24.2598 8.34731C21.3679 11.2399 20.7772 15.5537 22.4718 19.0369L24.7025 16.8067C24.0428 14.6024 24.5487 12.1208 26.2778 10.3935L32.0831 4.76927C33.3063 3.54929 34.929 2.87536 36.6581 2.87536C38.3844 2.87536 40.01 3.54929 41.2303 4.76927C43.7513 7.29114 43.7513 11.3951 41.2446 13.8997L35.4393 19.7036C34.219 20.925 32.5934 21.5961 30.8672 21.5961C30.4274 21.5961 30.0393 21.6406 29.6167 21.5544L27.3271 23.8449C28.4712 24.3206 29.6455 24.4714 30.8672 24.4714C33.2574 24.4714 35.6477 23.5604 37.4731 21.7355L43.2641 15.946C46.912 12.2989 46.912 6.38585 43.2641 2.73741L43.2626 2.73597Z" fill="#FBD8D5"/>
</svg>

<svg width="46" height="46" fill="none" xmlns="http://www.w3.org/2000/svg"><path d="M13.282 32.898a1.433 1.433 0 002.032 0l17.412-17.544a1.438 1.438 0 00-2.033-2.032L13.282 30.866a1.435 1.435 0 000 2.032zm8.095-3.06c.475 2.094-.038 4.149-1.656 5.768l-5.806 5.625a6.43 6.43 0 01-4.573 1.892 6.43 6.43 0 01-4.574-1.892c-2.52-2.522-2.52-6.625-.014-9.13l5.672-5.85a6.432 6.432 0 014.573-1.893c.59 0 1.16.105 1.715.257l2.244-2.243a9.36 9.36 0 00-3.959-.89c-2.39 0-4.782.913-6.606 2.736l-5.657 5.836c-3.648 3.647-3.648 9.562 0 13.21A9.31 9.31 0 009.342 46a9.31 9.31 0 006.606-2.736l5.792-5.61c2.792-2.79 3.394-6.679 1.916-10.092l-2.28 2.276zM43.263 2.736A9.318 9.318 0 0036.657 0a9.311 9.311 0 00-6.606 2.736L24.26 8.347c-2.892 2.893-3.483 7.207-1.788 10.69l2.23-2.23c-.66-2.205-.153-4.686 1.576-6.413l5.805-5.625a6.436 6.436 0 014.575-1.894c1.726 0 3.352.674 4.572 1.894 2.521 2.522 2.521 6.626.015 9.13l-5.806 5.805a6.422 6.422 0 01-4.572 1.892c-.44 0-.828.045-1.25-.042l-2.29 2.29c1.144.477 2.318.627 3.54.627 2.39 0 4.78-.91 6.606-2.736l5.791-5.789c3.648-3.647 3.648-9.56 0-13.209l-.001-.001z" fill="#FBD8D5"/></svg>
